qtOgitor/res/icons/pmwireframe.svg

<svg width="60" xmlns="http://www.w3.org/2000/svg" height="60" viewBox="0 0 48 48">
<path opacity=".4" fill="#031e38" d="m21.89,0h1.12c.18,.65 .54,1.96 .72,2.62 1.18,0 2.36,0 3.54,.01 .18-.66 .55-1.97 .74-2.63h1.09c5.72,3.98 12.37,5.96 18.9,8.15v.79c-1.82,.04-3.64,.07-5.46,.1 2.93,4.28 2.53,9.48 1.99,14.37-.55,3.82 1.94,6.96 3.47,10.21v.57c-5.7,3.27-11.44,6.64-16.3,11.1-.18-.84-.36-1.68-.55-2.52-1.86-.23-3.72-.44-5.57-.74-.47-2.99-.28-6.72-3.04-8.68-1.61-1.37-3.6,.07-5.23,.62-.8,.35-1.6,.7-2.4,1.05 .21-1.41 .43-2.82 .66-4.23 .8,.32 1.61,.65 2.41,.97 .26-1.53 .52-3.07 .69-4.62 1.86,.9 3.78,1.69 5.69,2.47-.12-2.42-.05-4.88-.67-7.24-1.3-2.02-3.25-3.49-5.01-5.09-.3,2.89-.59,5.78-1.01,8.65-1.94-.58-3.92-1.01-5.84-1.63 1.18-.61 2.36-1.22 3.55-1.82-1-4.03-3.61-7.24-7.37-9.01-.5,2.15-.98,4.32-1.46,6.48-.36-.28-1.08-.84-1.44-1.12 1.18-3.25 2.38-6.49 3.55-9.74-1.63,.23-3.26,.47-4.89,.73-.24,2.37-.54,4.74-.77,7.12-.06,.55-.18,1.66-.24,2.22-.29-3.03-.83-6.19 .1-9.17 3.28-2.48 7.44-3.26 11.11-5 2.87-1.27 5.33-3.25 7.92-4.99m11.58,8.35c-.87,1.17-2.04,2.08-2.97,3.19 3.12,.15 6.25,.23 9.38,.32-.05-.71-.14-2.13-.18-2.84-2.07-.31-4.14-.65-6.23-.67m-23.18,1.73c1.22,.83 2.51,1.54 3.83,2.2 2.46,.3 7,.65 6-3.12-3.31-.71-6.64,.09-9.83,.92m10.88-.87c.01,.66 .04,1.96 .05,2.62 3.28,.04 6.81,.2 9.38-2.19-3.14-.26-6.28-.36-9.43-.43m-7.1,4.67c.25,1.32 .6,2.62 1.08,3.86 .74,.08 2.21,.23 2.94,.3 .47-1.72 1.46-3.23 1.93-4.95-1.93,.46-3.96,.6-5.95,.79m7.22-1c1.46,1.63 1.8,5.21 4.69,4.6 2.85,.46 3.99-2.44 4.66-4.63-3.11-.03-6.23-.06-9.35,.03m12.06,.03c-.6,1.37-1.08,2.79-1.56,4.2 3.14-.13 6.35-.84 7.67-4.05-2.04-.07-4.07-.15-6.11-.15m5.4,5.14c.33,1.83 .64,3.65 1.11,5.45 1.39-1.22 2.82-2.41 3.97-3.85 .88-2.34 .24-4.93 .27-7.36-2.04,1.6-5.41,2.62-5.35,5.76m-8.85,1.82c-2.12,2.65-2.25,6.2-2.81,9.41 2.43-.61 4.87-1.21 7.18-2.21-.56,.99-1.09,2-1.58,3.03 2.18-.31 4.45-.62 6.25-2-.78,2.33 .58,4.61 .82,6.9 .98-.79 1.94-1.62 2.87-2.47 2.46-1.82 1.31-5.24 1.53-7.83-1.34,.8-2.62,1.67-3.91,2.54-.52-1.32-1.05-2.64-1.6-3.95-1.22,.85-2.41,1.74-3.66,2.55 .92-2.5 .73-5.22 .87-7.83-2.01,.38-4.63-.1-5.96,1.86m.09,14.15c-1.4,2.07-1.43,4.7-1.9,7.07 2.01-.52 4.5-.35 5.9-2.15 2.16-2.24 1.71-5.63 2.1-8.46-2.09,1.05-4.76,1.41-6.1,3.54z"/>
<path opacity=".72" fill="#053665" d="m23.01,0h5c-.19,.66-.56,1.97-.74,2.63-1.18-.01-2.36-.01-3.54-.01-.18-.66-.54-1.97-.72-2.62z"/>
<path opacity=".73" fill="#053766" d="m3.77,9.82c1.63-.26 3.26-.5 4.89-.73-1.17,3.25-2.37,6.49-3.55,9.74-.72-.61-1.4-1.27-2.11-1.89 .23-2.38 .53-4.75 .77-7.12z"/>
<path opacity=".07" fill="#000509" d="m10.29,10.08c3.19-.83 6.52-1.63 9.83-.92 1,3.77-3.54,3.42-6,3.12-1.32-.66-2.61-1.37-3.83-2.2z"/>
<path opacity=".63" fill="#052f58" d="m21.17,9.21c3.15,.07 6.29,.17 9.43,.43-2.57,2.39-6.1,2.23-9.38,2.19-.01-.66-.04-1.96-.05-2.62z"/>
<path opacity=".78" fill="#063b6d" d="m42.54,9.04c1.82-.03 3.64-.06 5.46-.1v24.68c-1.53-3.25-4.02-6.39-3.47-10.21 .54-4.89 .94-10.09-1.99-14.37z"/>
<path opacity=".61" fill="#052d55" d="m14.07,13.88c1.99-.19 4.02-.33 5.95-.79-.47,1.72-1.46,3.23-1.93,4.95-.73-.07-2.2-.22-2.94-.3-.48-1.24-.83-2.54-1.08-3.86z"/>
<path opacity=".6" fill="#042d54" d="m33.35,12.91c2.04,0 4.07,.08 6.11,.15-1.32,3.21-4.53,3.92-7.67,4.05 .48-1.41 .96-2.83 1.56-4.2z"/>
<path opacity=".48" fill="#032443" d="m3,16.94c.71,.62 1.39,1.28 2.11,1.89 .36,.28 1.08,.84 1.44,1.12 1.82,1.38 3.51,2.91 5.28,4.35 1.92,.62 3.9,1.05 5.84,1.63 .25,.3 .75,.91 1,1.21-.17,1.55-.43,3.09-.69,4.62-.8-.32-1.61-.65-2.41-.97-2.36-1.31-4.58-2.84-6.65-4.56 .08,2.69-.28,5.53 .72,8.09 1.1,2.2 3.47,.91 5.27,.7 .8-.35 1.6-.7 2.4-1.05 .97,2.18 1.61,4.62 3.23,6.43 1.55,.88 3.33,1.22 5.04,1.63 1.85,.3 3.71,.51 5.57,.74 .19,.84 .37,1.68 .55,2.52-.81,.89-1.6,1.79-2.37,2.71h-4.26c-3.24-2.48-6.44-5.08-10.16-6.83-3.33-1.83-7.59-3.29-8.89-7.27-1.74-4.74-2.62-9.75-3.26-14.74 .06-.56 .18-1.67 .24-2.22z"/>
<path opacity=".05" fill="#000306" d="m29.9,19.87c1.33-1.96 3.95-1.48 5.96-1.86-.14,2.61 .05,5.33-.87,7.83-.18,.31-.54,.92-.72,1.23-2.31,1-4.75,1.6-7.18,2.21 .56-3.21 .69-6.76 2.81-9.41z"/>
<path opacity=".57" fill="#042b50" d="m34.99,25.84c1.25-.81 2.44-1.7 3.66-2.55 .55,1.31 1.08,2.63 1.6,3.95-.33,.22-.98,.65-1.31,.86-1.8,1.38-4.07,1.69-6.25,2 .49-1.03 1.02-2.04 1.58-3.03 .18-.31 .54-.92 .72-1.23z"/>
<path opacity=".05" fill="#000407" d="m40.25,27.24c1.29-.87 2.57-1.74 3.91-2.54-.22,2.59 .93,6.01-1.53,7.83-.93,.85-1.89,1.68-2.87,2.47-.24-2.29-1.6-4.57-.82-6.9 .33-.21 .98-.64 1.31-.86z"/>
</svg>

<?xml version="1.0" encoding="UTF-8" standalone="no"?>
<!-- Created with Inkscape (http://www.inkscape.org/) -->
<svg
   xmlns:svg="http://www.w3.org/2000/svg"
   xmlns="http://www.w3.org/2000/svg"
   version="1.0"
   width="48pt"
   height="48pt"
   viewBox="0 0 48 48"
   id="svg2">
  <defs
     id="defs41" />
  <g
     id="#031e3866">
    <path
       d="M 21.89,0 L 23.01,0 C 23.19,0.65 23.55,1.96 23.73,2.62 C 24.91,2.62 26.09,2.62 27.27,2.63 C 27.45,1.97 27.82,0.66 28.01,0 L 29.1,0 C 34.82,3.98 41.47,5.96 48,8.15 L 48,8.94 C 46.18,8.98 44.36,9.01 42.54,9.04 C 45.47,13.32 45.07,18.52 44.53,23.41 C 43.98,27.23 46.47,30.37 48,33.62 L 48,34.19 C 42.3,37.46 36.56,40.83 31.7,45.29 C 31.52,44.45 31.34,43.61 31.15,42.77 C 29.29,42.54 27.43,42.33 25.58,42.03 C 25.11,39.04 25.3,35.31 22.54,33.35 C 20.93,31.98 18.94,33.42 17.31,33.97 C 16.51,34.32 15.71,34.67 14.91,35.02 C 15.12,33.61 15.34,32.2 15.57,30.79 C 16.37,31.11 17.18,31.44 17.98,31.76 C 18.24,30.23 18.5,28.69 18.67,27.14 C 20.53,28.04 22.45,28.83 24.36,29.61 C 24.24,27.19 24.31,24.73 23.69,22.37 C 22.39,20.35 20.44,18.88 18.68,17.28 C 18.38,20.17 18.09,23.06 17.67,25.93 C 15.73,25.35 13.75,24.92 11.83,24.3 C 13.01,23.69 14.19,23.08 15.38,22.48 C 14.38,18.45 11.77,15.24 8.01,13.47 C 7.51,15.62 7.03,17.79 6.55,19.95 C 6.19,19.67 5.47,19.11 5.11,18.83 C 6.29,15.58 7.49,12.34 8.66,9.09 C 7.03,9.32 5.4,9.56 3.77,9.82 C 3.53,12.19 3.23,14.56 3,16.94 C 2.94,17.49 2.82,18.6 2.76,19.16 C 2.47,16.13 1.93,12.97 2.86,9.99 C 6.14,7.51 10.3,6.73 13.97,4.99 C 16.84,3.72 19.3,1.74 21.89,0 M 33.47,8.35 C 32.6,9.52 31.43,10.43 30.5,11.54 C 33.62,11.69 36.75,11.77 39.88,11.86 C 39.83,11.15 39.74,9.73 39.7,9.02 C 37.63,8.71 35.56,8.37 33.47,8.35 M 10.29,10.08 C 11.51,10.91 12.8,11.62 14.12,12.28 C 16.58,12.58 21.12,12.93 20.12,9.16 C 16.81,8.45 13.48,9.25 10.29,10.08 M 21.17,9.21 C 21.18,9.87 21.21,11.17 21.22,11.83 C 24.5,11.87 28.03,12.03 30.6,9.64 C 27.46,9.38 24.32,9.28 21.17,9.21 M 14.07,13.88 C 14.32,15.2 14.67,16.5 15.15,17.74 C 15.89,17.82 17.36,17.97 18.09,18.04 C 18.56,16.32 19.55,14.81 20.02,13.09 C 18.09,13.55 16.06,13.69 14.07,13.88 M 21.29,12.88 C 22.75,14.51 23.09,18.09 25.98,17.48 C 28.83,17.94 29.97,15.04 30.64,12.85 C 27.53,12.82 24.41,12.79 21.29,12.88 M 33.35,12.91 C 32.75,14.28 32.27,15.7 31.79,17.11 C 34.93,16.98 38.14,16.27 39.46,13.06 C 37.42,12.99 35.39,12.91 33.35,12.91 M 38.75,18.05 C 39.08,19.88 39.39,21.7 39.86,23.5 C 41.25,22.28 42.68,21.09 43.83,19.65 C 44.71,17.31 44.07,14.72 44.1,12.29 C 42.06,13.89 38.69,14.91 38.75,18.05 M 29.9,19.87 C 27.78,22.52 27.65,26.07 27.09,29.28 C 29.52,28.67 31.96,28.07 34.27,27.07 C 33.71,28.06 33.18,29.07 32.69,30.1 C 34.87,29.79 37.14,29.48 38.94,28.1 C 38.16,30.43 39.52,32.71 39.76,35 C 40.74,34.21 41.7,33.38 42.63,32.53 C 45.09,30.71 43.94,27.29 44.16,24.7 C 42.82,25.5 41.54,26.37 40.25,27.24 C 39.73,25.92 39.2,24.6 38.65,23.29 C 37.43,24.14 36.24,25.03 34.99,25.84 C 35.91,23.34 35.72,20.62 35.86,18.01 C 33.85,18.39 31.23,17.91 29.9,19.87 M 29.99,34.02 C 28.59,36.09 28.56,38.72 28.09,41.09 C 30.1,40.57 32.59,40.74 33.99,38.94 C 36.15,36.7 35.7,33.31 36.09,30.48 C 34,31.53 31.33,31.89 29.99,34.02 z"
       id="path5"
       style="opacity:0.4;fill:#031e38" />
  </g>
  <g
     id="#053665b7">
    <path
       d="M 23.01,0 L 28.01,0 C 27.82,0.66 27.45,1.97 27.27,2.63 C 26.09,2.62 24.91,2.62 23.73,2.62 C 23.55,1.96 23.19,0.65 23.01,0 z"
       id="path8"
       style="opacity:0.72000002;fill:#053665" />
  </g>
  <g
     id="#053766ba">
    <path
       d="M 3.77,9.82 C 5.4,9.56 7.03,9.32 8.66,9.09 C 7.49,12.34 6.29,15.58 5.11,18.83 C 4.39,18.22 3.71,17.56 3,16.94 C 3.23,14.56 3.53,12.19 3.77,9.82 z"
       id="path11"
       style="opacity:0.73000004;fill:#053766" />
  </g>
  <g
     id="#00050912">
    <path
       d="M 10.29,10.08 C 13.48,9.25 16.81,8.45 20.12,9.16 C 21.12,12.93 16.58,12.58 14.12,12.28 C 12.8,11.62 11.51,10.91 10.29,10.08 z"
       id="path14"
       style="opacity:0.07000002;fill:#000509" />
  </g>
  <g
     id="#052f58a0">
    <path
       d="M 21.17,9.21 C 24.32,9.28 27.46,9.38 30.6,9.64 C 28.03,12.03 24.5,11.87 21.22,11.83 C 21.21,11.17 21.18,9.87 21.17,9.21 z"
       id="path17"
       style="opacity:0.62999998;fill:#052f58" />
  </g>
  <g
     id="#063b6dc6">
    <path
       d="M 42.54,9.04 C 44.36,9.01 46.18,8.98 48,8.94 L 48,33.62 C 46.47,30.37 43.98,27.23 44.53,23.41 C 45.07,18.52 45.47,13.32 42.54,9.04 z"
       id="path20"
       style="opacity:0.77999998;fill:#063b6d" />
  </g>
  <g
     id="#052d559b">
    <path
       d="M 14.07,13.88 C 16.06,13.69 18.09,13.55 20.02,13.09 C 19.55,14.81 18.56,16.32 18.09,18.04 C 17.36,17.97 15.89,17.82 15.15,17.74 C 14.67,16.5 14.32,15.2 14.07,13.88 z"
       id="path23"
       style="opacity:0.61000001;fill:#052d55" />
  </g>
  <g
     id="#042d549a">
    <path
       d="M 33.35,12.91 C 35.39,12.91 37.42,12.99 39.46,13.06 C 38.14,16.27 34.93,16.98 31.79,17.11 C 32.27,15.7 32.75,14.28 33.35,12.91 z"
       id="path26"
       style="opacity:0.6;fill:#042d54" />
  </g>
  <g
     id="#0324437a">
    <path
       d="M 3,16.94 C 3.71,17.56 4.39,18.22 5.11,18.83 C 5.47,19.11 6.19,19.67 6.55,19.95 C 8.37,21.33 10.06,22.86 11.83,24.3 C 13.75,24.92 15.73,25.35 17.67,25.93 C 17.92,26.23 18.42,26.84 18.67,27.14 C 18.5,28.69 18.24,30.23 17.98,31.76 C 17.18,31.44 16.37,31.11 15.57,30.79 C 13.21,29.48 10.99,27.95 8.92,26.23 C 9,28.92 8.64,31.76 9.64,34.32 C 10.74,36.52 13.11,35.23 14.91,35.02 C 15.71,34.67 16.51,34.32 17.31,33.97 C 18.28,36.15 18.92,38.59 20.54,40.4 C 22.09,41.28 23.87,41.62 25.58,42.03 C 27.43,42.33 29.29,42.54 31.15,42.77 C 31.34,43.61 31.52,44.45 31.7,45.29 C 30.89,46.18 30.1,47.08 29.33,48 L 25.07,48 C 21.83,45.52 18.63,42.92 14.91,41.17 C 11.58,39.34 7.32,37.88 6.02,33.9 C 4.28,29.16 3.4,24.15 2.76,19.16 C 2.82,18.6 2.94,17.49 3,16.94 z"
       id="path29"
       style="opacity:0.47999998;fill:#032443" />
  </g>
  <g
     id="#0003060c">
    <path
       d="M 29.9,19.87 C 31.23,17.91 33.85,18.39 35.86,18.01 C 35.72,20.62 35.91,23.34 34.99,25.84 C 34.81,26.15 34.45,26.76 34.27,27.07 C 31.96,28.07 29.52,28.67 27.09,29.28 C 27.65,26.07 27.78,22.52 29.9,19.87 z"
       id="path32"
       style="opacity:0.05;fill:#000306" />
  </g>
  <g
     id="#042b5092">
    <path
       d="M 34.99,25.84 C 36.24,25.03 37.43,24.14 38.65,23.29 C 39.2,24.6 39.73,25.92 40.25,27.24 C 39.92,27.46 39.27,27.89 38.94,28.1 C 37.14,29.48 34.87,29.79 32.69,30.1 C 33.18,29.07 33.71,28.06 34.27,27.07 C 34.45,26.76 34.81,26.15 34.99,25.84 z"
       id="path35"
       style="opacity:0.56999996;fill:#042b50" />
  </g>
  <g
     id="#0004070e">
    <path
       d="M 40.25,27.24 C 41.54,26.37 42.82,25.5 44.16,24.7 C 43.94,27.29 45.09,30.71 42.63,32.53 C 41.7,33.38 40.74,34.21 39.76,35 C 39.52,32.71 38.16,30.43 38.94,28.1 C 39.27,27.89 39.92,27.46 40.25,27.24 z"
       id="path38"
       style="opacity:0.05;fill:#000407" />
  </g>
</svg>
